X:1
T:Laudate Dominum
T:Laudate Dominum
T:Lorenzo Perosi
C:Lorenzo Perosi
%%score ( 1 2 3 ) { ( 4 6 8 ) | ( 5 7 ) }
L:1/8
Q:1/4=96
M:3/4
K:C
V:1 treble nm="VOCI"
V:2 treble 
V:3 treble 
V:4 treble nm="ORGANO"
V:6 treble 
V:8 treble 
V:5 bass 
V:7 bass 
V:1
"^Moderato" A2 A2 c2 | B3 B A2 | AB (c2 d2) | e6 | e2 e2 e2 | d4 d2 | cB A2 A2 | B6 | z6 | z6 | %10
 z6 | z6 | z6 | z6 | z6 | z6 | e2 e2 ee | d3 d d2 | cc c2 d2 | B6 | A6 | A3 A c2 | B4 A2 | %23
 (AB) c2 d2 | e6 | e4 e2 | d3 d d2 | (cB A4) | B6 | z6 | z6 | z6 | z2 z2 d2 | e4 d2 | c4 c2 | %35
 cc c2 d2 | B6 | ee e2 c2 | B6 | ^c6 | d6 | !fermata!^c6 |] %42
V:2
 A2 A2 c2 | B3 B A2 | AB c2 d2 | c6 | c2 c2 c2 | B4 B2 | AG G2 ^F2 | G6 | c3 c G2 | AF G2 G2 | %10
w: Lau- da- te|Do- mi- num|om- nes gen- *|tes:|lau- da- te|e- um|om- nes po- pu-|li.|Quo- ni- am|con- fir- ma- ta|
 G2 G2 A2 | B4 G2 | c4 G2 | A3 G F2 | G6 | G6 | c2 c2 cc | B3 B B2 | AA A2 B2 | ^G6 | A6 | %21
w: est su- per|nos mi-|se- ri-|cor- di- a|e-|jus|et ve- ri- tas|Do- mi- ni|ma- net in ae-|ter-|num.|
 A3 A c2 | B4 A2 | AB c2 d2 | e6 | c4 c2 | B3 B B2 | (A G3 ^F2) | G6 | c4 G2 | A4 =F2 | GG G2 A2 | %32
w: Glo- ri- a|Pa- tri,|et _ Fi- li-|o,|et Spi-|ri- tu- i|San- * *|cto.|Si- cut|e- rat|in prin- ci- pi-|
 B4 B2 | c4 B2 | A4 A2 | AA A2 B2 | ^G6 | AA A2 A2 | (A2 ^G^F G2) | A6 | F6 | !fermata!E6 |] %42
w: o, et|nunc, et|sem- per,|et in sae- cu-|la|sae- cu- lo- rum.|A- * * *|men,|a-|men.|
V:3
 x6 | x6 | x6 | x6 | x6 | x6 | x6 | x6 | x6 | x6 | x6 | x6 | x6 | x6 | x6 | x6 | x6 | x6 | x6 | %19
 x6 | x6 | x6 | x6 | x6 | x6 | x6 | x6 | x6 | x6 | x6 | x6 | x6 | x6 | x6 | x6 | x6 | x6 | x6 | %38
 x6 | x6 | A6 | !fermata!A6 |] %42
V:4
 [CEA]4 [EAc]2 | [D^GB]4 [CA]2 | AB c2 d2 | e6 | [ce]6 | [Bd]6 | cB A4 | B6 | [EGc]4 [EG]2 | %9
 [FA]F [DG-]4 | [EG]4 [^FA]2 | [DGB]4 [B,DG]2 | [C-Gc]6 | [FA]3 [EG] [C-F]2 | [DG-]6 | [CEG]6 | %16
 [ce]6 | [Bd]6 | [EAc]4 [=FBd]2 | [^GB]6 | [CEA]6 | [CEA]4 [EAc]2 | [D^GB]4 [CA]2 | AB c2 d2 | e6 | %25
 [ce]6 | [Bd]6 | [Ac]B A4 | [DGB]6 | [EGc]4 [CE]2 | [C=FA]4 [A,CF]2 | [EG]4 [^FA]2 | %32
 [B,GB]4 [GBd]2 | [ce]4 [Bd]2 | [CAc]6 | [Ac]4 [Bd]2 | [E-^GB]6 | [A-e]4 [A-c]2 | d6 | [EA^c]6 | %40
 [FA-d]6 | !fermata![EA^c]6 |] %42
V:5
 A,4 A,,2 | E,4 F,2 | C4 A,B, | C6 | C,2 E,2 ^F,2 | G,4 ^G,2 | x2 D4- | D6 | C,6 | F,A, G,4 | %10
 C,4 A,,2 | G,,2 G,2 =F,2 | E,6 | F,3 G, A,2 | G,6 | C,6 | C,2 E,2 ^F,2 | G,4 ^G,2 | A,4 D,2 | %19
 E,6 | A,6 | A,4 A,,2 | E,4 F,2 | C4 A,B, | C6 | C,2 E,2 ^F,2 | G,6 | x2 A,2 D2 | G,6 | C,6 | %30
 F,4 x2 | C,4 A,,2 | G,,6 | C,4 E,2 | F,6 | F,4 D,2 | E,4 D,2 | C,4 A,,2 | E,6 | A,,6 | D,6 | %41
 !fermata!A,,6 |] %42
V:6
 x6 | x6 | F2 G2 F2 | E6 | G4 A2 | D4 E2 | A =G3 ^F2 | G6 | x6 | C4 B,2 | C6 | x6 | x6 | C6 | %14
 C2 B,4 | x6 | G4 A2 | D4 E2- | x6 | E4 D2 | x6 | x6 | x6 | F2 G2 F2 | E6 | G4 A2 | D4 G2 | %27
 EG- G2 ^F2 | x6 | x6 | x6 | C6 | x6 | G6 | x6 | F6 | x6 | E6- | E6- | x6 | x6 | x6 |] %42
V:7
 x6 | x6 | F,2 E,2 D,2 | C,6 | x6 | x6 | A,2 D,4 | G,6 | x6 | x6 | x6 | x6 | x6 | x6 | x6 | x6 | %16
 x6 | x6 | x6 | x6 | x6 | x6 | x6 | F,2 E,2 D,2 | C,6 | x6 | x6 | C,2 D,4 | x6 | x6 | x6 | x6 | %32
 x6 | x6 | x6 | x6 | x6 | x6 | x6 | x6 | x6 | x6 |] %42
V:8
 x6 | x6 | x6 | x6 | x6 | x6 | x6 | x6 | x6 | x6 | x6 | x6 | x6 | x6 | x6 | x6 | x6 | x6 | x6 | %19
 x6 | x6 | x6 | x6 | x6 | x6 | x6 | x6 | x6 | x6 | x6 | x6 | x6 | x6 | x6 | x6 | x6 | x6 | x6 | %38
 A2 ^G^F G2 | x6 | x6 | x6 |] %42

